src/images/redux.svg

<?xml version="1.0" encoding="UTF-8"?>
<svg width="101px" height="96px" viewBox="0 0 101 96" version="1.1" xmlns="http://www.w3.org/2000/svg" xmlns:xlink="http://www.w3.org/1999/xlink">
    <!-- Generator: Sketch 51.3 (57544) - http://www.bohemiancoding.com/sketch -->
    <title>redux</title>
    <desc>Created with Sketch.</desc>
    <defs></defs>
    <g id="Welcome" stroke="none" stroke-width="1" fill="none" fill-rule="evenodd">
        <g id="Desktop-HD" transform="translate(-541.000000, -1044.000000)" fill="#764ABC" fill-rule="nonzero">
            <g id="Group-3" transform="translate(0.000000, 587.000000)">
                <g id="redux" transform="translate(541.000000, 457.000000)">
                    <g id="redux-logo-figure">
                        <path d="M53.2974683,34.2020862 C55.1826524,34.2284701 56.8617416,34.3026148 57.9586169,34.3974471 C62.6798781,34.8056322 67.0969041,35.7359577 70.8033988,37.0109098 C76.4665715,38.9589157 81.7391578,41.8431963 86.6211579,45.6637513 C90.7465516,49.3088622 93.5417663,52.2905784 95.0068017,54.6088998 C95.8768088,55.9856281 97.4086923,58.1709498 98.5733586,61.030677 C98.8976399,61.826919 99.3866554,62.9796137 99.8324421,64.5040869 C100.021926,65.1520725 100.296189,66.2746227 100.655229,67.8717375 C100.869816,69.9041458 100.983847,71.3441371 100.99732,72.1917115 C101.025382,73.9570662 100.827734,75.4153998 100.655229,76.4653342 C100.466359,77.614872 100.172505,79.0321277 99.5296723,80.6237316 C99.284913,81.2297364 98.8030699,82.1952797 98.0841428,83.5203615 C96.0325821,86.4675862 93.7856191,88.7954335 91.3432537,90.5039034 C88.9008883,92.2123732 85.7795845,93.6520924 81.9793422,94.8230613 C78.7338798,95.8543901 74.7677803,96.1490362 70.0810437,95.7070002 C67.9595248,95.5069062 65.5161378,94.9414903 63.3999549,94.3158084 C62.0001078,93.9019221 60.0093304,93.1227631 57.4276229,91.9783317 L63.1825438,87.4008142 C64.6265905,87.9925999 65.6855751,88.3930599 66.3594976,88.6021942 C68.1048644,89.1438237 69.7079931,89.4262864 70.8033988,89.6188219 C71.7840202,89.7911823 72.9604796,89.9320927 74.3502953,89.9881635 C75.0582014,90.0167234 76.2424116,90.0167234 77.9029261,89.9881635 C79.5658531,89.7337146 80.7373933,89.516919 81.4175467,89.3377764 C83.1979437,88.8688456 84.5186527,88.2436693 85.525747,87.7087893 C86.4771408,87.2034924 87.6557374,86.5056777 88.808703,85.4679322 C89.3199516,85.0077747 90.0892732,84.175192 91.1166678,82.9701846 C92.4388052,81.0533409 93.3019505,79.6589392 93.7061038,78.7869797 C94.3949684,77.3007556 94.6503499,75.7758958 94.8295307,74.7400539 C95.0404814,73.5205494 95.265386,71.8928535 95.0068017,69.9280053 C94.9039024,69.1461271 94.5830015,67.852371 94.0440985,66.0467365 C93.1813354,63.4540014 92.2055252,61.3466493 91.1166678,59.7246801 C89.4833817,57.2917263 88.3069994,55.8033639 87.2678207,54.6088998 C86.109491,53.2774803 84.2935368,51.5804842 81.9793422,49.861482 C81.041562,49.1648914 79.4479243,48.1056662 77.1984291,46.6838064 C75.0278502,45.4842229 73.3590116,44.6342314 72.1919132,44.1338319 C69.3963493,42.9352192 66.2697045,41.967229 64.4449042,41.534242 C62.5899997,41.0941119 59.5354559,40.5493356 56.3698943,40.3513045 C55.546334,40.2997843 54.1400578,40.1391211 52.73469,40.1546379 C52.2362125,40.1601417 51.5039412,40.2058135 50.5378758,40.2916537 C49.4436015,42.84813 46.8976689,44.6401429 43.9315794,44.6401429 C39.9669816,44.6401429 36.7530403,41.4385147 36.7530403,37.4891062 C36.7530403,33.5396977 39.9669816,30.3380695 43.9315794,30.3380695 C46.7063869,30.3380695 49.1134818,31.9064029 50.3083325,34.2017734 C51.6615727,34.1930317 52.6579512,34.1931358 53.2974683,34.2020862 Z" id="Combined-Shape"></path>
                        <path d="M68.0876645,70.1030618 C67.1217498,71.7162324 66.2173863,73.127723 65.5862536,74.0265896 C62.8696806,77.8955651 59.8511786,81.2410041 56.8883613,83.8011492 C52.3614571,87.7128081 47.2156433,90.8193681 41.4509193,93.1208289 C36.2172342,94.8572817 32.2258606,95.7778763 29.4767987,95.8826127 C27.8442765,95.9448101 25.1774475,96.1737168 22.1077679,95.7486194 C21.2530682,95.6302583 20.0059606,95.4757883 18.4571389,95.0981351 C17.7988038,94.9376115 16.6853324,94.6129446 15.1167246,94.1241341 C13.2417959,93.2930559 11.9323929,92.6714348 11.1885156,92.2592709 C9.63914428,91.4008028 8.4696899,90.5011241 7.64284569,89.827335 C6.73756189,89.0896262 5.65195537,88.1274887 4.58927722,86.7771096 C4.18466144,86.2629515 3.58594307,85.3644899 2.79312212,84.0817251 C1.25610121,80.8382154 0.355495043,77.7358196 0.0913036184,74.7745373 C-0.172887807,71.813255 0.136258744,68.4006227 1.01874327,64.5366402 C1.74517253,61.2210906 3.47275926,57.6521832 6.20150347,53.829918 C7.43670889,52.0997145 9.15063429,50.274494 10.7533059,48.7616879 C11.8134672,47.7609723 13.4868903,46.433093 15.7735752,44.77805 L16.8760475,52.0316234 C15.639058,52.9815204 14.7610729,53.6948844 14.2420923,54.1717154 C12.8980035,55.406642 11.8504604,56.6484419 11.13509,57.4971888 C10.4946812,58.2569982 9.78366637,59.2014836 9.03971609,60.3724527 C8.66078319,60.9688887 8.06844164,61.9905159 7.26269143,63.4373343 C6.6521909,64.9991784 6.25473481,66.1182731 6.07032315,66.794618 C5.58759983,68.5650453 5.47069949,70.0170192 5.43213816,71.1532874 C5.39570958,72.2267105 5.41306781,73.592402 5.73888533,75.105947 C5.8833595,75.7770839 6.22264484,76.8570749 6.75674132,78.3459198 C7.76249384,80.44496 8.5434645,81.8868029 9.09965331,82.6714488 C10.0476572,84.0088497 11.246091,84.9915993 12.0573399,85.6641009 C13.0124294,86.4558422 14.3155446,87.4637171 16.1537232,88.2230588 C16.8851952,88.525226 18.1708939,88.8952604 20.010819,89.333162 C22.6972829,89.8852175 25.0181539,90.0970548 26.9734317,89.968674 C29.9063487,89.7761027 31.7892082,89.5054101 33.3478343,89.2061348 C35.0851703,88.872545 37.4693929,88.1544056 40.1219741,87.0174335 C41.1968785,86.5566987 42.9152271,85.7114681 45.2770199,84.4817414 C47.4060243,83.2089582 48.9800171,82.1942343 49.9989984,81.4375695 C52.4397759,79.6251216 54.8455867,77.4117366 56.1349215,76.0539609 C57.4455265,74.6737859 59.447202,72.3109958 61.2028431,69.6790574 C61.6595951,68.9943257 62.5027432,67.8614522 63.1922126,66.6412722 C63.4367642,66.2084801 63.7633251,65.553908 64.1718951,64.6775561 C62.4958751,62.4552789 62.2108305,59.3628768 63.6944672,56.8040088 C65.6775578,53.3837202 70.0696365,52.2118428 73.5044498,54.1865474 C76.9392631,56.1612519 78.1161171,60.5347581 76.1330267,63.9550467 C74.745069,66.3488943 72.1770564,67.6413465 69.5831013,67.5244677 C68.9138136,68.6962893 68.4153349,69.5558207 68.0876645,70.1030618 Z" id="Combined-Shape"></path>
                        <path d="M27.3670789,62.9074661 C26.4760511,61.2527972 25.7269108,59.7544787 25.2782768,58.7532075 C23.3472296,54.4434543 22.0222706,50.1456285 21.3445328,46.2996176 C20.3090135,40.4232776 20.285157,34.4333711 21.2729636,28.3298981 C22.4735997,22.970409 23.7366864,19.0909253 25.062224,16.6914465 C25.8493904,15.2665232 27.0257078,12.8732789 28.9723779,10.4730242 C29.5143947,9.80471441 30.2895685,8.82018456 31.4122081,7.69313058 C31.8893921,7.21407017 32.7422346,6.4311863 33.9707357,5.34447897 C35.65157,4.17262682 36.8608976,3.37545507 37.5987184,2.95296372 C39.135475,2.07298532 40.5120556,1.53837684 41.5177807,1.17979245 C42.618915,0.78719051 44.0060745,0.35627924 45.715583,0.14481462 C46.3664802,0.0642992492 47.4481014,0.0160277093 48.9604466,0 C52.5436314,0.358482744 55.6776266,1.18731608 58.3624318,2.48650001 C61.047237,3.78568392 63.8252645,5.80642629 66.6965142,8.5487271 C69.1760953,10.8755211 71.358174,14.1869629 73.2427504,18.4830524 C74.095831,20.4277392 74.7841659,22.8297987 75.2609003,24.9760896 C75.5762583,26.395853 75.8573925,28.507302 76.104303,31.3104369 L69.2934641,28.5166325 C69.1129064,26.9721591 68.9510546,25.8557733 68.807909,25.1674751 C68.4371812,23.3848769 67.9078258,21.8517588 67.5457091,20.8044182 C67.2215377,19.8668253 66.7747769,18.7739105 66.1500438,17.5362909 C65.8318344,16.9059062 65.257565,15.87453 64.4272355,14.4421621 C63.3973564,13.1171649 62.6388376,12.2018885 62.1516787,11.6963328 C60.8764721,10.3729701 59.6869686,9.52568873 58.7288485,8.90778695 C57.8237206,8.32406025 56.6393405,7.63575297 55.1688569,7.13450807 C54.5168143,6.91224578 53.4125521,6.64570446 51.8560703,6.33488408 C49.5315093,6.1123352 47.8883492,6.0363516 46.9265897,6.10693328 C45.287305,6.22723721 43.8243023,6.74380299 42.8277165,7.08974397 C41.6544284,7.49702289 40.1158927,8.08996941 38.5157267,9.26739875 C37.8789676,9.73593684 36.8983859,10.6424113 35.5739817,11.9868222 C33.715384,13.9947459 32.3378791,15.8658974 31.441467,17.6002766 C30.0968488,20.2018454 29.3602164,21.9477041 28.8151556,23.4316358 C28.2075987,25.0857129 27.5978941,27.48971 27.2104792,30.3383094 C27.0534874,31.4926463 26.896074,33.3939381 26.7382397,36.042185 C26.7373426,38.5139795 26.8001498,40.3793666 26.9266615,41.6383464 C27.2296963,44.6539949 27.8958218,47.8462292 28.4004814,49.6453583 C28.9134666,51.4741677 29.9163012,54.3985058 31.2774902,57.2514915 C31.6316206,57.9937314 32.1724812,59.2963754 32.8676256,60.5128467 C33.1141901,60.9443235 33.5094068,61.5599543 34.0532755,62.3597388 C36.8290731,62.0738496 39.6374711,63.4227473 41.0758427,66.0060336 C42.9984297,69.4589609 41.7452692,73.8097061 38.2768306,75.7236948 C34.8083919,77.6376837 30.4381021,76.3901276 28.5155151,72.9372003 C27.1699034,70.5205091 27.3799474,67.6640174 28.8163521,65.510976 C28.1524364,64.3366214 27.6693453,63.4687848 27.3670789,62.9074661 Z" id="Combined-Shape"></path>
                    </g>
                </g>
            </g>
        </g>
    </g>
</svg>

<svg width="101" height="96" xmlns="http://www.w3.org/2000/svg"><g fill="#764ABC" fill-rule="nonzero"><path d="M53.297 34.202c1.886.026 3.565.1 4.662.195 4.72.409 9.138 1.339 12.844 2.614 5.664 1.948 10.936 4.832 15.818 8.653 4.126 3.645 6.92 6.627 8.386 8.945.87 1.377 2.402 3.562 3.566 6.422.325.796.814 1.949 1.26 3.473.189.648.463 1.77.822 3.368.215 2.032.329 3.472.342 4.32a23.534 23.534 0 0 1-.342 4.273c-.189 1.15-.482 2.567-1.125 4.159-.245.606-.727 1.571-1.446 2.896-2.051 2.948-4.298 5.275-6.74 6.984-2.443 1.708-5.564 3.148-9.365 4.32-3.245 1.03-7.211 1.325-11.898.883-2.121-.2-4.565-.766-6.681-1.391-1.4-.414-3.39-1.193-5.972-2.338l5.755-4.577c1.444.592 2.503.992 3.176 1.201 1.746.542 3.349.824 4.444 1.017.981.172 2.157.313 3.547.37.708.028 1.892.028 3.553 0 1.663-.255 2.834-.472 3.515-.651a18.603 18.603 0 0 0 4.108-1.63c.951-.505 2.13-1.202 3.283-2.24.511-.46 1.28-1.293 2.308-2.498 1.322-1.917 2.185-3.311 2.59-4.183.688-1.486.943-3.011 1.123-4.047.21-1.22.435-2.847.177-4.812-.103-.782-.424-2.076-.963-3.881-.863-2.593-1.838-4.7-2.927-6.322-1.634-2.433-2.81-3.922-3.85-5.116-1.158-1.332-2.973-3.029-5.288-4.748-.937-.696-2.531-1.755-4.78-3.177-2.171-1.2-3.84-2.05-5.007-2.55-2.796-1.199-5.922-2.167-7.747-2.6-1.855-.44-4.91-.985-8.075-1.183-.824-.051-2.23-.212-3.635-.196-.499.005-1.231.05-2.197.137a7.181 7.181 0 0 1-6.606 4.348c-3.965 0-7.179-3.201-7.179-7.15 0-3.95 3.214-7.152 7.179-7.152a7.181 7.181 0 0 1 6.376 3.864c1.354-.009 2.35-.009 2.99 0z"/><path d="M68.088 70.103c-.966 1.613-1.87 3.025-2.502 3.924-2.716 3.869-5.735 7.214-8.698 9.774-4.527 3.912-9.672 7.018-15.437 9.32-5.234 1.736-9.225 2.657-11.974 2.762-1.633.062-4.3.29-7.37-.134-.854-.119-2.101-.273-3.65-.65-.658-.161-1.772-.486-3.34-.975-1.875-.83-3.185-1.453-3.928-1.865a23.725 23.725 0 0 1-3.546-2.432c-.905-.737-1.991-1.7-3.054-3.05-.404-.514-1.003-1.413-1.796-2.695C1.256 80.838.355 77.736.091 74.775c-.264-2.962.045-6.374.928-10.238.726-3.316 2.454-6.885 5.183-10.707 1.235-1.73 2.949-3.556 4.551-5.068 1.06-1.001 2.734-2.329 5.02-3.984l1.103 7.254c-1.237.95-2.115 1.663-2.634 2.14-1.344 1.235-2.392 2.476-3.107 3.325a26.47 26.47 0 0 0-2.095 2.875c-.38.597-.972 1.619-1.777 3.065-.61 1.562-1.008 2.681-1.193 3.358-.482 1.77-.6 3.222-.638 4.358-.036 1.074-.019 2.44.307 3.953.144.671.484 1.751 1.018 3.24 1.005 2.099 1.786 3.54 2.343 4.325.948 1.338 2.146 2.32 2.957 2.993.955.792 2.259 1.8 4.097 2.56.731.301 2.017.671 3.857 1.11 2.686.551 5.007.763 6.962.635 2.933-.193 4.816-.464 6.375-.763 1.737-.333 4.121-1.052 6.774-2.189 1.075-.46 2.793-1.306 5.155-2.535 2.129-1.273 3.703-2.288 4.722-3.044 2.44-1.813 4.847-4.026 6.136-5.384 1.31-1.38 3.312-3.743 5.068-6.375.457-.685 1.3-1.818 1.99-3.038.244-.433.57-1.087.979-1.963a7.128 7.128 0 0 1-.478-7.874c1.984-3.42 6.376-4.592 9.81-2.617 3.435 1.974 4.612 6.348 2.629 9.768a7.188 7.188 0 0 1-6.55 3.57 160.854 160.854 0 0 1-1.495 2.578z"/><path d="M27.367 62.907c-.89-1.654-1.64-3.153-2.089-4.154-1.93-4.31-3.256-8.607-3.933-12.453-1.036-5.877-1.06-11.867-.072-17.97 1.2-5.36 2.464-9.24 3.79-11.639.786-1.424 1.963-3.818 3.91-6.218.541-.668 1.317-1.653 2.44-2.78.476-.479 1.33-1.262 2.558-2.349 1.68-1.171 2.89-1.969 3.628-2.391a23.772 23.772 0 0 1 3.919-1.773c1.1-.393 2.488-.824 4.198-1.035.65-.08 1.732-.129 3.244-.145 3.584.358 6.718 1.187 9.402 2.487 2.685 1.299 5.463 3.32 8.335 6.062 2.48 2.327 4.661 5.638 6.546 9.934.853 1.945 1.541 4.347 2.018 6.493.315 1.42.596 3.531.843 6.334l-6.81-2.793c-.181-1.545-.343-2.661-.486-3.35-.37-1.782-.9-3.315-1.262-4.363-.324-.937-.771-2.03-1.396-3.268-.318-.63-.892-1.661-1.723-3.094-1.03-1.325-1.788-2.24-2.275-2.746a18.551 18.551 0 0 0-3.423-2.788c-.905-.584-2.09-1.272-3.56-1.773-.652-.223-1.756-.49-3.313-.8-2.324-.223-3.968-.299-4.93-.228-1.639.12-3.102.637-4.098.983-1.174.407-2.712 1-4.312 2.177-.637.469-1.618 1.375-2.942 2.72-1.859 2.008-3.236 3.879-4.133 5.613-1.344 2.602-2.08 4.348-2.626 5.832-.607 1.654-1.217 4.058-1.605 6.906-.157 1.155-.314 3.056-.472 5.704 0 2.472.062 4.337.189 5.596.303 3.016.969 6.208 1.473 8.007.513 1.83 1.516 4.754 2.877 7.606.355.743.895 2.045 1.59 3.262.247.431.642 1.047 1.186 1.847 2.776-.286 5.584 1.063 7.023 3.646 1.922 3.453.67 7.804-2.8 9.718-3.468 1.914-7.838.666-9.76-2.787a7.12 7.12 0 0 1 .3-7.426 160.749 160.749 0 0 1-1.449-2.604z"/></g></svg>
